svgs/akinator.svg

<svg width="192" height="192" viewBox="0 0 192 192" fill="none" xmlns="http://www.w3.org/2000/svg">
<path d="M135.246 133.061L132.756 102.667C132.641 101.261 132.158 99.9159 131.318 98.7878C128.554 95.0742 121.716 86.3285 115.519 81.9255C113.379 80.4052 109.045 78.827 103.256 77.554M135.246 133.061C155.574 122.997 163.155 110.183 169.843 77.6346C170.231 75.7448 169.892 73.7535 168.908 72.0976C148.099 37.0741 137.502 35.0682 119.062 23.2713C117.789 22.4565 116.314 22.0035 114.805 22.0009C86.9963 21.9535 64.0337 23.7158 49.407 25.9263M135.246 133.061C132.467 145.592 128.848 153.722 123.516 156.821C118.247 159.884 89.8863 170.972 62.9145 169.931C62.2799 169.907 61.6491 169.799 61.0419 169.613C47.4435 165.447 38.7765 159.337 33.9419 147.847C33.5688 146.961 33.4172 145.997 33.4463 145.034C33.8723 130.947 37.1252 110.753 38.8541 104.444M38.2106 81.409H34.8236C31.9784 81.409 29.3571 79.8538 27.9771 77.3471L22.9703 68.2523C22.1352 66.7354 21.8161 64.9991 22.1032 63.2889C23.4144 55.4791 27.6853 32.7443 33.4122 29.7568C35.8299 28.4956 41.3555 27.1431 49.407 25.9263M38.2106 81.409C60.6694 72.8718 87.4112 74.0695 103.256 77.554M38.2106 81.409C38.5905 86.4275 38.6605 100.027 38.8541 104.444M38.8541 104.444C38.9482 106.589 38.8825 101.328 38.8541 104.444ZM38.8541 104.444C43.7829 104.334 59.0855 101.528 63 103.5M38.8541 104.444C39.1024 103.539 38.8456 105.384 38.8541 104.444ZM49.407 25.9263C61.8102 31.972 76.065 42.6252 83.5 49.5M103.256 77.554C94.5062 63.5537 92.8354 58.132 83.5 49.5M83.5 49.5C111.843 44.3597 128.977 46.8575 157.744 55.0286" stroke="black" stroke-width="12" stroke-linecap="round" stroke-linejoin="round"/>
<path d="M86 103.82C90.1764 104.393 98.091 101.577 105 104" stroke="black" stroke-width="12" stroke-linecap="round" stroke-linejoin="round"/>
<path d="M58 125V126M98 124V125" stroke="black" stroke-width="10" stroke-linecap="round" stroke-linejoin="round"/>
<path d="M66.9651 145.381C73.3597 145.857 76.0887 145.932 82.8926 145.809C84.552 145.62 86.7235 144.923 88.0382 144.557" stroke="black" stroke-width="10" stroke-linecap="round" stroke-linejoin="round"/>
</svg>

<svg xmlns="http://www.w3.org/2000/svg" width="192" height="192" fill="none" viewBox="0 0 192 192"><path stroke="#000" stroke-linecap="round" stroke-linejoin="round" stroke-width="12" d="m135.246 133.061-2.49-30.394a7.5 7.5 0 0 0-1.438-3.88c-2.764-3.713-9.602-12.458-15.799-16.862-2.14-1.52-6.474-3.098-12.263-4.371m31.99 55.507c20.328-10.064 27.909-22.878 34.597-55.426a7.8 7.8 0 0 0-.935-5.537c-20.809-35.024-31.406-37.03-49.846-48.827a7.94 7.94 0 0 0-4.257-1.27c-27.809-.048-50.771 1.715-65.398 3.925m85.839 107.135c-2.779 12.531-6.398 20.661-11.73 23.76-5.269 3.063-33.63 14.151-60.602 13.11a7.4 7.4 0 0 1-1.872-.318c-13.599-4.166-22.266-10.276-27.1-21.766-.373-.886-.525-1.85-.496-2.813.426-14.087 3.68-34.281 5.408-40.59m-.643-23.035h-3.387a7.82 7.82 0 0 1-6.847-4.062l-5.007-9.095c-.835-1.517-1.154-3.253-.867-4.963 1.311-7.81 5.582-30.545 11.31-33.532 2.417-1.261 7.943-2.614 15.994-3.83M38.211 81.408c22.458-8.537 49.2-7.34 65.045-3.855m-65.045 3.855c.38 5.018.45 18.618.643 23.035m0 0c.094 2.145.029-3.116 0 0m0 0c4.929-.11 20.232-2.916 24.146-.944m-24.146.944c.248-.905-.008.94 0 0m10.553-78.518C61.81 31.972 76.065 42.626 83.5 49.5m19.756 28.054c-8.75-14-10.42-19.422-19.756-28.054m0 0c28.343-5.14 45.477-2.642 74.244 5.529M86 103.82c4.176.573 12.091-2.243 19 .18"/><path stroke="#000" stroke-linecap="round" stroke-linejoin="round" stroke-width="10" d="M58 125v1m40-2v1m-31.035 20.381c6.395.476 9.124.551 15.928.428 1.659-.189 3.83-.886 5.145-1.252"/></svg>
